advertisements-off.svg

<svg fill="currentColor" viewBox="0 0 24 24"><path d="m12.2 9-2-2H13c1.1 0 2 .9 2 2v2.8l-2-2V9zM23 9V7h-4c-1.1 0-2 .9-2 2v2c0 1.1.9 2 2 2h2v2h-2.8l2 2h.8c1.1 0 2-.9 2-2v-2c0-1.1-.9-2-2-2h-2V9zm-.9 12.5-1.3 1.3-6.4-6.4c-.3.3-.8.6-1.4.6H9v-6.1l-2-2V17H5v-4H3v4H1V9c0-1.1.9-2 2-2h2.1l-4-4 1.3-1.3zM5 9H3v2h2zm8 5.9-2-2V15h2z"/></svg>

<svg  viewBox="0 0 24 24" fill="currentColor"><path  d="M12.2 9L10.2 7H13C14.1 7 15 7.9 15 9V11.8L13 9.8V9H12.2M23 9V7H19C17.9 7 17 7.9 17 9V11C17 12.1 17.9 13 19 13H21V15H18.2L20.2 17H21C22.1 17 23 16.1 23 15V13C23 11.9 22.1 11 21 11H19V9H23M22.1 21.5L20.8 22.8L14.4 16.4C14.1 16.7 13.6 17 13 17H9V10.9L7 8.9V17H5V13H3V17H1V9C1 7.9 1.9 7 3 7H5.1L1.1 3L2.4 1.7L22.1 21.5M5 9H3V11H5V9M13 14.9L11 12.9V15H13V14.9Z"/></svg>
